X: 399
T: the Runaway Jig   #2
B: Francis O'Neill: "The Dance Music of Ireland" (1907) #399
R: single jig
%S: s:2 b:12(6+6)
Z: Frank Nordberg - http://www.musicaviva.com
F: http://www.musicaviva.com/abc/tunes/ireland/oneill-1001/0399/oneill-1001-0399-1.abc
N: Compacted via repeats and multiple endings [JC]
N: The pickup notes were also adjusted slightly.
M: 6/8
L: 1/8
K: D
"^A"|: cB |: A2F F2A | d3 (cBA) |[1,3 B2G G2A | B2A (Bcd) :|[2,4 Bcd ecA | d3 d H:|
"^B"|: zA |: d2e f2d | g2e f2d |[1,3 ecA AcA | ecA AcA :|[2,4 ecA ABc | d3 d :|
